X:172
%%etbk:tnset id:56,pos:3,rep:3x,ant:
%%etbk:tnset id:260,pos:8,rep:3x-Stop,ant:
%%etbk:tnset id:509,pos:3,rep:3x,ant:
%%etbk:wsite http://www.thesession.org/tunes/display/18
%%etbk:pldat 2016-06-23T19:13,2016-06-22T15:24,2016-06-18T15:44,2016-05-05T14:13,2016-05-03T16:02,2016-04-09T16:03,2016-04-07T17:10,2016-04-05T16:45,2016-04-04T19:11,2016-04-03T14:49,2016-03-30T16:54,2016-03-11T16:15,2016-03-09T17:41,2016-03-08T15:34,2016-03-05T14:26,2016-02-26T17:29,2016-02-16T17:28,2015-11-04T16:28,2015-10-29T18:39,2015-10-27T17:05,2015-10-25T14:17,2015-10-21T16:43,2015-10-14T17:51,2015-10-06T15:21,2015-09-09T17:28,2015-06-26T17:26,2015-06-23T18:11,2015-06-22T18:01,2015-06-21T15:20,2015-03-12T18:32,2015-03-09T19:04,2015-03-04T17:57,2015-02-17T18:13,2015-02-14T12:48,2015-01-29T18:16,2014-11-05T19:06,2014-11-04T16:53,2014-11-02T14:03,2014-10-28T17:07,2014-10-19T15:11,2014-08-21T18:54,2014-08-18T18:10,2014-06-24T18:47,2014-06-22T16:30,2014-06-09T15:01,2014-06-05T18:07,2014-03-05T19:21,2014-03-02T16:46,2014-02-24T18:03,2014-02-18T17:16,2013-10-30T16:08,2013-10-28T18:59,2013-10-23T18:11,2013-10-17T19:10,2013-10-13T16:05,2013-10-09T15:30,2013-10-04T15:58,2013-08-29T16:14
T: Concertina, The
Z: Piano Box Version by Martin Fleischmann
H: Created 2013-02-19 /  Last Modified 2013-02-19
M: 4/4
L: 1/8
R: reel
K: Dmaj
|: "D"!3!A2!2!F!3!A !4!BAFA | !3!A{B}AFA !4!BAF!3!A | "A"!2!B2 (3cBA BAcA | !2!BAcA !2!B!1!A!2!F!3!A |
"D"!3!A2!2!F!3!A !4!BAFA | !3!A{B}AFA !4!BAF!3!A  | !2!F!1!A!2!Bc !4!ded!2!B | "A"!1!A!3!F!2!EF "D"!1!D4:|
|: "D"!1!A!3!d!2!d!3!d Addd | !1!A2!3!dA {d}!2!B!1!A!2!F!3!A | "A"!2!B2 (3cBA BAcA | !2!BAcA !2!B!1!A!2!F!3!A  |
"D"!1!A!3!d!2!d!3!d Addd | !1!A2!3!dA {d}!2!B!1!A!2!F!3!A | !2!F!1!A!2!Bc !4!ded!2!B | "A"!1!A!3!F!2!EF "D"!1!D4:|


